packages/bezier-icons/icons/image-quality.svg

<svg width="24" height="24" viewBox="0 0 24 24" fill="none" xmlns="http://www.w3.org/2000/svg">
<path fill-rule="evenodd" clip-rule="evenodd" d="M18.0127 10.3435C18.1021 10.5522 18.3979 10.5522 18.4873 10.3435L19.6442 7.64417L22.3435 6.4873C22.5522 6.39789 22.5522 6.10211 22.3435 6.0127L19.6442 4.85583L18.4873 2.15648C18.3979 1.94784 18.1021 1.94784 18.0127 2.15648L16.8558 4.85583L14.1565 6.0127C13.9478 6.10211 13.9478 6.39789 14.1565 6.4873L16.8558 7.64417L18.0127 10.3435ZM4.5 3H13V5H5V19H19V12H21V19.5C21 20.327 20.327 21 19.5 21H4.5C3.673 21 3 20.327 3 19.5V4.5C3 3.673 3.673 3 4.5 3ZM18.0002 18.0001V12.0001L14.0052 10.0001L6.0002 14.0001V18.0001H18.0002ZM10.0002 8.00012C10.0002 9.10412 9.1042 10.0001 8.0002 10.0001C6.8962 10.0001 6.0002 9.10412 6.0002 8.00012C6.0002 6.89612 6.8962 6.00012 8.0002 6.00012C9.1042 6.00012 10.0002 6.89612 10.0002 8.00012Z" fill="#313234"/>
</svg>

<svg xmlns="http://www.w3.org/2000/svg" width="24" height="24" fill="none" viewBox="0 0 24 24"><path fill="#313234" fill-rule="evenodd" d="M18.013 10.344c.09.208.385.208.474 0l1.157-2.7 2.7-1.157a.258.258 0 0 0 0-.474l-2.7-1.157-1.157-2.7a.258.258 0 0 0-.474 0l-1.157 2.7-2.7 1.157a.258.258 0 0 0 0 .474l2.7 1.157zM4.5 3H13v2H5v14h14v-7h2v7.5c0 .827-.673 1.5-1.5 1.5h-15c-.827 0-1.5-.673-1.5-1.5v-15C3 3.673 3.673 3 4.5 3M18 18v-6l-3.995-2L6 14v4zM10 8A2 2 0 1 1 6 8 2 2 0 0 1 10 8" clip-rule="evenodd"/></svg>
